fs/notepad_16_regular.svg

<svg viewBox="0 0 16 16" fill="none" xmlns="http://www.w3.org/2000/svg" height="1em" width="1em">
  <path d="M6 5C5.72386 5 5.5 5.22386 5.5 5.5C5.5 5.77614 5.72386 6 6 6H10C10.2761 6 10.5 5.77614 10.5 5.5C10.5 5.22386 10.2761 5 10 5H6ZM6 8C5.72386 8 5.5 8.22386 5.5 8.5C5.5 8.77614 5.72386 9 6 9H10C10.2761 9 10.5 8.77614 10.5 8.5C10.5 8.22386 10.2761 8 10 8H6ZM6 11C5.72386 11 5.5 11.2239 5.5 11.5C5.5 11.7761 5.72386 12 6 12H6.5C6.77614 12 7 11.7761 7 11.5C7 11.2239 6.77614 11 6.5 11H6ZM5 1C5.27614 1 5.5 1.22386 5.5 1.5V2H7.5V1.5C7.5 1.22386 7.72386 1 8 1C8.27614 1 8.5 1.22386 8.5 1.5V2H10.5V1.5C10.5 1.22386 10.7239 1 11 1C11.2761 1 11.5 1.22386 11.5 1.5V2C12.3284 2 13 2.67157 13 3.5V10.0858C13 10.4836 12.842 10.8651 12.5607 11.1464L9.14645 14.5607C8.86514 14.842 8.48361 15 8.08579 15H4.5C3.67157 15 3 14.3284 3 13.5V3.5C3 2.67157 3.67157 2 4.5 2V1.5C4.5 1.22386 4.72386 1 5 1ZM11.5 3H4.5C4.22386 3 4 3.22386 4 3.5V13.5C4 13.7761 4.22386 14 4.5 14H8V11.5C8 10.6716 8.67157 10 9.5 10H12V3.5C12 3.22386 11.7761 3 11.5 3ZM9 13.2929L11.2929 11H9.5C9.22386 11 9 11.2239 9 11.5V13.2929Z" fill="#212121"/>
</svg>

<svg viewBox="0 0 16 16" fill="none" xmlns="http://www.w3.org/2000/svg" height="1em" width="1em">
  <path d="M6 5a.5.5 0 0 0 0 1h4a.5.5 0 0 0 0-1H6Zm0 3a.5.5 0 0 0 0 1h4a.5.5 0 0 0 0-1H6Zm0 3a.5.5 0 0 0 0 1h.5a.5.5 0 0 0 0-1H6ZM5 1a.5.5 0 0 1 .5.5V2h2v-.5a.5.5 0 0 1 1 0V2h2v-.5a.5.5 0 0 1 1 0V2A1.5 1.5 0 0 1 13 3.5v6.586a1.5 1.5 0 0 1-.44 1.06l-3.414 3.415a1.5 1.5 0 0 1-1.06.439H4.5A1.5 1.5 0 0 1 3 13.5v-10A1.5 1.5 0 0 1 4.5 2v-.5A.5.5 0 0 1 5 1Zm6.5 2h-7a.5.5 0 0 0-.5.5v10a.5.5 0 0 0 .5.5H8v-2.5A1.5 1.5 0 0 1 9.5 10H12V3.5a.5.5 0 0 0-.5-.5ZM9 13.293 11.293 11H9.5a.5.5 0 0 0-.5.5v1.793Z" fill="#212121"/>
</svg>
